svg/azure-dns.svg

<?xml version="1.0" encoding="UTF-8"?>
<svg xmlns="http://www.w3.org/2000/svg" xmlns:xlink="http://www.w3.org/1999/xlink" width="32" height="32" viewBox="0 0 32 32">
<defs>
<radialGradient id="radial-pattern-0" gradientUnits="userSpaceOnUse" cx="-6811.399902" cy="6729.689941" fx="-6811.399902" fy="6729.689941" r="17" gradientTransform="matrix(0.88889, 0, 0, -0.88889, 6070.951172, 5998.311035)">
<stop offset="0.18" stop-color="rgb(36.862745%, 62.745098%, 93.72549%)" stop-opacity="1"/>
<stop offset="1" stop-color="rgb(0%, 47.058824%, 83.137255%)" stop-opacity="1"/>
</radialGradient>
</defs>
<path fill-rule="nonzero" fill="url(#radial-pattern-0)" d="M 25.261719 27.945312 C 18.664062 33.0625 9.167969 31.859375 4.054688 25.261719 C -1.0625 18.664062 0.140625 9.167969 6.738281 4.054688 L 6.898438 3.945312 C 13.53125 -1.003906 22.910156 0.300781 27.9375 6.875 C 32.964844 13.445312 31.773438 22.839844 25.261719 27.945312 "/>
<path fill-rule="nonzero" fill="rgb(36.862745%, 62.745098%, 93.72549%)" fill-opacity="1" d="M 16 2.328125 C 8.449219 2.328125 2.328125 8.449219 2.328125 16 C 2.328125 23.550781 8.449219 29.671875 16 29.671875 C 23.550781 29.671875 29.671875 23.550781 29.671875 16 C 29.660156 8.453125 23.546875 2.339844 16 2.328125 M 25.15625 6.933594 C 23.964844 7.605469 22.671875 8.085938 21.332031 8.355469 C 20.867188 6.640625 20.117188 5.019531 19.109375 3.554688 C 21.398438 4.105469 23.488281 5.273438 25.15625 6.933594 M 16 3.09375 C 16.648438 3.09375 17.296875 3.144531 17.9375 3.253906 C 19.238281 4.800781 20.167969 6.625 20.65625 8.585938 C 17.453125 9.171875 14.171875 9.171875 10.96875 8.585938 C 11.457031 6.664062 12.375 4.875 13.652344 3.359375 C 14.425781 3.199219 15.210938 3.109375 16 3.09375 M 12.445312 3.554688 C 11.425781 5 10.660156 6.613281 10.1875 8.320312 C 8.984375 8.078125 7.839844 7.613281 6.808594 6.949219 C 8.371094 5.355469 10.308594 4.1875 12.445312 3.554688 M 6.613281 24.890625 C 7.574219 24.246094 8.648438 23.789062 9.777344 23.539062 C 10.21875 25.304688 11.039062 26.953125 12.179688 28.375 C 10.054688 27.710938 8.136719 26.511719 6.613281 24.890625 M 18.007812 28.800781 C 17.34375 28.890625 16.671875 28.925781 16 28.90625 C 15.140625 28.910156 14.28125 28.820312 13.441406 28.640625 C 11.953125 27.1875 10.921875 25.335938 10.472656 23.308594 C 13.921875 22.605469 17.476562 22.605469 20.925781 23.308594 C 20.464844 25.339844 19.421875 27.191406 17.921875 28.640625 Z M 19.308594 28.515625 C 20.480469 27.054688 21.316406 25.355469 21.761719 23.539062 C 23.019531 23.832031 24.21875 24.332031 25.316406 25.011719 C 23.667969 26.6875 21.589844 27.875 19.308594 28.445312 Z M 21.9375 22.792969 C 22.078125 22.152344 22.203125 21.492188 22.292969 20.800781 L 21.476562 20.996094 C 21.386719 21.542969 21.296875 22.097656 21.171875 22.613281 C 17.601562 21.882812 13.917969 21.882812 10.347656 22.613281 C 10.226562 22.105469 10.125 21.597656 10.042969 21.085938 C 10.035156 21.03125 10.035156 20.976562 10.042969 20.925781 L 9.226562 20.691406 C 9.21875 20.855469 9.21875 21.023438 9.226562 21.191406 C 9.226562 21.757812 9.421875 22.292969 9.527344 22.808594 C 8.257812 23.085938 7.054688 23.601562 5.972656 24.320312 C 1.921875 19.457031 2.003906 12.375 6.167969 7.609375 C 7.300781 8.335938 8.554688 8.851562 9.867188 9.136719 C 9.742188 9.5625 9.636719 10.027344 9.546875 10.488281 C 9.457031 10.949219 9.546875 10.933594 9.40625 11.148438 L 10.238281 10.949219 L 10.238281 10.648438 C 10.347656 10.1875 10.453125 9.742188 10.578125 9.316406 C 12.367188 9.644531 14.183594 9.785156 16 9.742188 C 17.65625 9.742188 19.3125 9.585938 20.941406 9.28125 C 21.066406 9.761719 21.191406 10.277344 21.296875 10.792969 L 22.117188 10.988281 C 21.996094 10.386719 21.851562 9.792969 21.6875 9.207031 C 23.128906 8.890625 24.507812 8.34375 25.777344 7.589844 C 30.023438 12.394531 30.070312 19.601562 25.882812 24.457031 C 24.671875 23.667969 23.339844 23.085938 21.9375 22.738281 Z M 21.9375 22.792969 "/>
<path fill-rule="nonzero" fill="rgb(100%, 100%, 100%)" fill-opacity="1" d="M 6.558594 12.445312 C 7.242188 12.351562 7.929688 12.300781 8.621094 12.300781 C 9.714844 12.214844 10.800781 12.546875 11.664062 13.226562 C 12.351562 13.914062 12.730469 14.847656 12.710938 15.820312 C 12.765625 16.902344 12.375 17.957031 11.625 18.738281 C 10.707031 19.515625 9.519531 19.90625 8.320312 19.820312 C 7.726562 19.824219 7.132812 19.796875 6.542969 19.734375 Z M 7.539062 19.074219 C 7.863281 19.097656 8.191406 19.097656 8.515625 19.074219 C 9.394531 19.175781 10.265625 18.867188 10.886719 18.238281 C 11.507812 17.613281 11.808594 16.734375 11.699219 15.859375 C 11.773438 15.042969 11.46875 14.242188 10.875 13.679688 C 10.28125 13.117188 9.464844 12.859375 8.65625 12.976562 C 8.285156 12.941406 7.910156 12.941406 7.539062 12.976562 Z M 13.972656 19.75 L 13.972656 12.265625 L 15.023438 12.265625 L 17.421875 16 C 17.925781 16.78125 18.378906 17.597656 18.773438 18.4375 C 18.683594 17.441406 18.667969 16.535156 18.667969 15.359375 L 18.667969 12.265625 L 19.554688 12.265625 L 19.554688 19.75 L 18.578125 19.75 L 16.230469 16 C 15.714844 15.164062 15.21875 14.222656 14.828125 13.511719 L 14.828125 19.804688 Z M 21.136719 18.578125 C 21.679688 18.890625 22.292969 19.058594 22.914062 19.058594 C 23.910156 19.058594 24.480469 18.542969 24.480469 17.777344 C 24.480469 17.011719 24.089844 16.675781 23.074219 16.300781 C 22.0625 15.929688 21.085938 15.234375 21.085938 14.167969 C 21.121094 13.570312 21.402344 13.011719 21.863281 12.628906 C 22.324219 12.242188 22.925781 12.066406 23.519531 12.140625 C 24.089844 12.125 24.660156 12.246094 25.171875 12.496094 L 24.890625 13.296875 C 24.453125 13.058594 23.960938 12.9375 23.464844 12.941406 C 22.4375 12.941406 22.042969 13.546875 22.042969 14.0625 C 22.042969 14.578125 22.507812 15.109375 23.539062 15.503906 C 24.570312 15.894531 25.457031 16.605469 25.457031 17.707031 C 25.457031 18.808594 24.605469 19.859375 22.828125 19.859375 C 22.164062 19.863281 21.507812 19.699219 20.925781 19.378906 Z M 21.136719 18.578125 "/>
</svg>

<svg role="img" viewBox="0 0 32 32" xmlns="http://www.w3.org/2000/svg"><defs><radialGradient cx="-6811.4" cy="6729.69" fx="-6811.4" fy="6729.69" gradientTransform="matrix(.88889 0 0 -.88889 6070.951 5998.311)" gradientUnits="userSpaceOnUse" id="azure-dns_svg__a" r="17"><stop offset=".18" stop-color="rgb(36.862746%, 62.7451%, 93.725491%)"/><stop offset="1" stop-color="rgb(0%, 47.058824%, 83.137256%)"/></radialGradient></defs><path d="M25.262 27.945c-6.598 5.118-16.094 3.914-21.207-2.683C-1.062 18.664.14 9.168 6.738 4.055l.16-.11c6.633-4.949 16.012-3.644 21.04 2.93 5.027 6.57 3.835 15.965-2.676 21.07" fill="url(#azure-dns_svg__a)"/><path d="M16 2.328C8.45 2.328 2.328 8.45 2.328 16S8.449 29.672 16 29.672c7.55 0 13.672-6.121 13.672-13.672C29.66 8.453 23.547 2.34 16 2.328m9.156 4.606a13 13 0 0 1-3.824 1.421 15.7 15.7 0 0 0-2.223-4.8c2.29.55 4.38 1.718 6.047 3.379M16 3.094c.648 0 1.297.05 1.938.16a13.3 13.3 0 0 1 2.718 5.332 26.9 26.9 0 0 1-9.687 0 13.1 13.1 0 0 1 2.683-5.227q1.163-.241 2.348-.265m-3.555.46a15.4 15.4 0 0 0-2.258 4.766A9.8 9.8 0 0 1 6.81 6.95a13.1 13.1 0 0 1 5.636-3.395M6.613 24.89a9.3 9.3 0 0 1 3.164-1.352 12.6 12.6 0 0 0 2.403 4.836 12.9 12.9 0 0 1-5.567-3.484m11.395 3.91q-.998.135-2.008.105a12 12 0 0 1-2.559-.265 10.7 10.7 0 0 1-2.968-5.332 26.2 26.2 0 0 1 10.453 0 10.7 10.7 0 0 1-3.004 5.332Zm1.3-.285a12.8 12.8 0 0 0 2.454-4.977c1.258.293 2.457.793 3.554 1.473a12.74 12.74 0 0 1-6.007 3.433Zm2.63-5.723c.14-.64.265-1.3.355-1.992l-.816.195c-.09.547-.18 1.102-.305 1.617-3.57-.73-7.254-.73-10.824 0a21 21 0 0 1-.305-1.527.6.6 0 0 1 0-.16l-.816-.235a5 5 0 0 0 0 .5c0 .567.195 1.102.3 1.618a10.5 10.5 0 0 0-3.554 1.511 12.87 12.87 0 0 1 .195-16.71 11.2 11.2 0 0 0 3.7 1.527c-.126.425-.231.89-.321 1.351s0 .446-.14.66l.831-.199v-.3c.11-.461.215-.907.34-1.333 1.79.329 3.606.47 5.422.426 1.656 0 3.313-.156 4.941-.46.125.48.25.995.356 1.511l.82.195a25 25 0 0 0-.43-1.781 13.6 13.6 0 0 0 4.09-1.617c4.246 4.805 4.293 12.012.106 16.867a12.9 12.9 0 0 0-3.945-1.719Zm0 0" fill="rgb(36.862746%, 62.7451%, 93.725491%)"/><path d="M6.559 12.445a15 15 0 0 1 2.062-.144 4.37 4.37 0 0 1 3.043.926 3.56 3.56 0 0 1 1.047 2.593 3.92 3.92 0 0 1-1.086 2.918A4.6 4.6 0 0 1 8.32 19.82a16 16 0 0 1-1.777-.086Zm.98 6.63q.488.035.977 0a2.87 2.87 0 0 0 2.37-.837 2.87 2.87 0 0 0 .813-2.379 2.67 2.67 0 0 0-.824-2.18 2.67 2.67 0 0 0-2.219-.702 6 6 0 0 0-1.117 0Zm6.434.675v-7.484h1.05L17.422 16c.504.781.957 1.598 1.351 2.438-.09-.997-.105-1.903-.105-3.079v-3.093h.887v7.484h-.977L16.23 16c-.515-.836-1.011-1.777-1.402-2.488v6.293Zm7.164-1.172c.543.313 1.156.48 1.777.48.996 0 1.566-.515 1.566-1.28 0-.766-.39-1.102-1.406-1.477-1.012-.371-1.988-1.067-1.988-2.133a2.17 2.17 0 0 1 .777-1.54 2.16 2.16 0 0 1 1.657-.487c.57-.016 1.14.105 1.652.355l-.281.8a2.94 2.94 0 0 0-1.426-.355c-1.027 0-1.422.606-1.422 1.121 0 .516.465 1.047 1.496 1.442 1.031.39 1.918 1.101 1.918 2.203s-.852 2.152-2.629 2.152a3.9 3.9 0 0 1-1.902-.48Zm0 0" fill="rgb(100%, 100%, 100%)"/></svg>
